X: 38211
T: Sproggies
R: reel
M: 4/4
K: Adorian
eAAG ABcd|ea (3aaa aged|BccA BAGA|Bdga c'bag|
aAAG ABcd|ea (3aaa aged|cd (3efg abbc'|bagb (3efg ab|
aAAG ABcd|ea (3aaa aged|cccd egab|c'e (3eee bgab|
aAAG ABcd|ea (3aaa aged|cd (3efg abbc'|bagb (3efg ab|
aa'a'g' a'g'e'd'|c'aaa bage|dega bgab|d'gab d'g'f'g'|
g'a'a'g' a'g'e'd'|c'2 c'a bage|dega bgab|aged dABG|
Aa'a'g' a'g'e'd'|c'aaa bage|dega bgab|d'gab d'g'f'g'|
bc'bg a2 (3eed|fdcG dBAG|ABcd (3efg ab|c'bag (3efg ab|

